unum/images/unum-two-color-logo.svg

<?xml version="1.0" encoding="UTF-8"?>
<svg width="149px" height="48px" viewBox="0 0 149 48" version="1.1" xmlns="http://www.w3.org/2000/svg" xmlns:xlink="http://www.w3.org/1999/xlink">
    <!-- Generator: Sketch 43.2 (39069) - http://www.bohemiancoding.com/sketch -->
    <title>two-color-logo</title>
    <desc>Created with Sketch.</desc>
    <defs></defs>
    <g id="Pages" stroke="none" stroke-width="1" fill="none" fill-rule="evenodd">
        <g id="Web" transform="translate(-437.000000, -754.000000)">
            <g id="Logo" transform="translate(370.000000, 566.000000)">
                <g id="Two-Color" transform="translate(6.000000, 76.000000)">
                    <g id="two-color-logo" transform="translate(61.000000, 112.000000)">
                        <path d="M79.3878588,47.2281412 C91.2250353,47.2281412 93.8923294,39.5142588 93.8923294,34.2182588 L93.8923294,18.6229647 L85.1648,18.6229647 L85.1648,33.6234353 C85.1648,37.7363765 82.8598588,39.5340235 79.3878588,39.5340235 C75.9073882,39.5340235 73.6043294,37.7363765 73.6043294,33.6234353 L73.6043294,18.6229647 L64.8768,18.6229647 L64.8768,34.2182588 C64.8768,39.5142588 67.5422118,47.2281412 79.3878588,47.2281412" id="Fill-1" fill="#015294"></path>
                        <path d="M14.5129412,47.2281412 C26.3529412,47.2281412 29.0202353,39.5142588 29.0202353,34.2182588 L29.0202353,18.6229647 L20.2945882,18.6229647 L20.2945882,33.6234353 C20.2945882,37.7363765 17.9877647,39.5340235 14.5129412,39.5340235 C11.0343529,39.5340235 8.72658824,37.7363765 8.72658824,33.6234353 L8.72658824,18.6229647 L0,18.6229647 L0,34.2182588 C0,39.5142588 2.67482353,47.2281412 14.5129412,47.2281412" id="Fill-3" fill="#015294"></path>
                        <path d="M46.9504,17.5397647 C35.1085176,17.5397647 32.4374588,25.2517647 32.4374588,30.5477647 L32.4374588,46.1421176 L41.1668706,46.1421176 L41.1668706,31.1378824 C41.1668706,27.0352941 43.4718118,25.2338824 46.9504,25.2338824 C50.4261647,25.2338824 52.7301647,27.0352941 52.7301647,31.1378824 L52.7301647,46.1421176 L61.4576941,46.1421176 L61.4576941,30.5477647 C61.4576941,25.2517647 58.7875765,17.5397647 46.9504,17.5397647" id="Fill-5" fill="#015294"></path>
                        <path d="M120.055153,21.9584 C119.678682,21.4548706 117.4528,17.5395765 110.311153,17.5395765 C103.037741,17.5395765 97.3097412,21.1791059 97.3097412,29.9725176 L97.3097412,46.1419294 L105.841506,46.1419294 L105.841506,29.9574588 C105.841506,27.1226353 107.289976,24.9513412 110.811859,24.9513412 C114.342212,24.9513412 115.785035,27.1226353 115.785035,29.9574588 L115.785035,46.1419294 L124.318682,46.1419294 L124.318682,29.9574588 C124.318682,27.1226353 125.762447,24.9513412 129.289035,24.9513412 C132.817506,24.9513412 134.263153,27.1226353 134.263153,29.9574588 L134.263153,46.1419294 L142.790212,46.1419294 L142.790212,29.9725176 C142.790212,21.1791059 137.060329,17.5395765 129.790682,17.5395765 C122.659388,17.5395765 120.427859,21.4548706 120.055153,21.9584" id="Fill-7" fill="#015294"></path>
                        <path d="M39.7729882,7.02785882 C39.7729882,11.0052706 42.9466353,14.0640941 46.9466353,14.0640941 C50.9089882,14.0640941 54.0252235,11.0052706 54.0252235,7.02785882 C54.0252235,3.05609412 50.9089882,9.41176471e-05 46.9466353,9.41176471e-05 C42.9466353,9.41176471e-05 39.7729882,3.05609412 39.7729882,7.02785882" id="Fill-9" fill="#5E88A1"></path>
                        <path d="M72.2040471,7.02785882 C72.2040471,11.0052706 75.3814588,14.0640941 79.3833412,14.0640941 C83.3438118,14.0640941 86.4591059,11.0052706 86.4591059,7.02785882 C86.4591059,3.05609412 83.3438118,9.41176471e-05 79.3833412,9.41176471e-05 C75.3814588,9.41176471e-05 72.2040471,3.05609412 72.2040471,7.02785882" id="Fill-11" fill="#5E88A1"></path>
                        <path d="M112.875953,7.02785882 C112.875953,11.0052706 116.053365,14.0640941 120.055247,14.0640941 C124.015718,14.0640941 127.131012,11.0052706 127.131012,7.02785882 C127.131012,3.05609412 124.015718,9.41176471e-05 120.055247,9.41176471e-05 C116.053365,9.41176471e-05 112.875953,3.05609412 112.875953,7.02785882" id="Fill-13" fill="#5E88A1"></path>
                        <path d="M145.438494,22.9212235 C143.770729,22.9212235 142.427671,21.5828706 142.427671,19.9104 C142.427671,18.2398118 143.770729,16.8835765 145.438494,16.8835765 C147.096847,16.8835765 148.448376,18.2398118 148.448376,19.9104 C148.448376,21.5828706 147.096847,22.9212235 145.438494,22.9212235 L145.438494,22.9212235 Z M145.438494,17.3193412 C144.007906,17.3193412 142.870024,18.4864 142.870024,19.9104 C142.870024,21.3259294 144.007906,22.4779294 145.438494,22.4779294 C146.858729,22.4779294 147.998494,21.3259294 147.998494,19.9104 C147.998494,18.4864 146.858729,17.3193412 145.438494,17.3193412 L145.438494,17.3193412 Z M146.118965,21.6167529 L145.039435,20.0478118 L144.936847,20.0478118 L144.936847,21.6167529 L144.452141,21.6167529 L144.452141,18.2059294 C144.679906,18.0948706 144.996141,18.0252235 145.318965,18.0252235 C146.033318,18.0252235 146.534965,18.4271059 146.534965,19.0332235 C146.534965,19.6195765 146.118965,19.9536941 145.557082,20.0120471 L146.705318,21.6167529 L146.118965,21.6167529 Z M145.277553,18.4271059 C145.148612,18.4271059 145.029082,18.4525176 144.936847,18.4779294 L144.936847,19.7231059 L145.200376,19.7231059 C145.668141,19.7231059 146.033318,19.5518118 146.033318,19.0332235 C146.033318,18.5466353 145.616376,18.4271059 145.277553,18.4271059 L145.277553,18.4271059 Z" id="Fill-15" fill="#015294"></path>
                    </g>
                </g>
            </g>
        </g>
    </g>
</svg>

<svg width="149" height="48" viewBox="0 0 149 48" xmlns="http://www.w3.org/2000/svg"><title>two-color-logo</title><g fill="none" fill-rule="evenodd"><path d="M79.388 47.228c11.837 0 14.504-7.714 14.504-13.01V18.623h-8.727v15c0 4.113-2.305 5.911-5.777 5.911-3.48 0-5.784-1.798-5.784-5.91V18.622h-8.727v15.595c0 5.296 2.665 13.01 14.51 13.01m-64.874.001c11.84 0 14.507-7.714 14.507-13.01V18.623h-8.725v15c0 4.113-2.307 5.911-5.782 5.911-3.479 0-5.786-1.798-5.786-5.91V18.622H0v15.595c0 5.296 2.675 13.01 14.513 13.01M46.95 17.54c-11.841 0-14.513 7.712-14.513 13.008v15.594h8.73V31.138c0-4.103 2.305-5.904 5.783-5.904 3.476 0 5.78 1.801 5.78 5.904v15.004h8.728V30.548c0-5.296-2.67-13.008-14.508-13.008m73.105 4.418c-.376-.503-2.602-4.418-9.744-4.418-7.273 0-13.001 3.64-13.001 12.433v16.169h8.532V29.957c0-2.834 1.448-5.006 4.97-5.006 3.53 0 4.973 2.172 4.973 5.006v16.185h8.534V29.957c0-2.834 1.443-5.006 4.97-5.006 3.529 0 4.974 2.172 4.974 5.006v16.185h8.527v-16.17c0-8.793-5.73-12.432-13-12.432-7.13 0-9.362 3.915-9.735 4.418" fill="#015294"/><path d="M39.773 7.028c0 3.977 3.174 7.036 7.174 7.036 3.962 0 7.078-3.059 7.078-7.036C54.025 3.056 50.91 0 46.947 0c-4 0-7.174 3.056-7.174 7.028m32.431 0c0 3.977 3.177 7.036 7.18 7.036 3.96 0 7.075-3.059 7.075-7.036C86.46 3.056 83.344 0 79.383 0c-4.002 0-7.179 3.056-7.179 7.028m40.672 0c0 3.977 3.177 7.036 7.18 7.036 3.96 0 7.075-3.059 7.075-7.036 0-3.972-3.115-7.028-7.076-7.028-4.002 0-7.179 3.056-7.179 7.028" fill="#5E88A1"/><path d="M145.438 22.921a3.002 3.002 0 0 1-3.01-3.01 3.016 3.016 0 0 1 3.01-3.027 3.022 3.022 0 0 1 3.01 3.026 3.007 3.007 0 0 1-3.01 3.011zm0-5.602c-1.43 0-2.568 1.167-2.568 2.591a2.562 2.562 0 0 0 2.568 2.568c1.42 0 2.56-1.152 2.56-2.568 0-1.424-1.14-2.59-2.56-2.59zm.681 4.298l-1.08-1.57h-.102v1.57h-.485v-3.411c.228-.111.544-.18.867-.18.714 0 1.216.401 1.216 1.007 0 .587-.416.92-.978.979l1.148 1.605h-.586zm-.841-3.19c-.13 0-.249.026-.341.05v1.246h.263c.468 0 .833-.171.833-.69 0-.486-.417-.606-.755-.606z" fill="#015294"/></g></svg>
